Sources/FrostedUI/Resources/Icons.xcassets/calendarPlus20.imageset/calendar-plus-20.svg

<svg width="20" height="20" viewBox="0 0 20 20" fill="none" xmlns="http://www.w3.org/2000/svg" data-fui-icon="true">
  <path
    d="M14.792 11.542C15.2061 11.5422 15.542 11.8779 15.542 12.292V14.25H17.5C17.9141 14.25 18.2498 14.5859 18.25 15C18.2499 15.4141 17.9141 15.75 17.5 15.75H15.542V17.709C15.5417 18.1228 15.2059 18.4588 14.792 18.459C14.378 18.459 14.0423 18.1229 14.042 17.709V15.75H12.083C11.669 15.7498 11.3331 15.414 11.333 15C11.3332 14.586 11.6691 14.2502 12.083 14.25H14.042V12.292C14.042 11.8778 14.3778 11.542 14.792 11.542ZM13.542 1.54199C13.9561 1.54217 14.292 1.87789 14.292 2.29199V3.20898H15.208C16.5426 3.20898 17.6248 4.29047 17.625 5.625V9.375C17.6249 9.7891 17.2891 10.125 16.875 10.125C16.4609 10.125 16.1251 9.7891 16.125 9.375V8.45898H3.875V15.209C3.87531 15.715 4.28591 16.125 4.79199 16.125H9.375C9.7891 16.125 10.1248 16.4609 10.125 16.875C10.1249 17.2891 9.78913 17.625 9.375 17.625H4.79199C3.4575 17.625 2.37531 16.5434 2.375 15.209V5.625C2.37518 4.29046 3.45741 3.20898 4.79199 3.20898H5.70801V2.29199C5.70801 1.87789 6.04394 1.54217 6.45801 1.54199C6.87222 1.54199 7.20801 1.87778 7.20801 2.29199V3.20898H12.792V2.29199C12.792 1.87778 13.1278 1.54199 13.542 1.54199ZM4.79199 4.70898C4.28584 4.70898 3.87518 5.11889 3.875 5.625V6.95898H16.125V5.625C16.1248 5.11888 15.7142 4.70898 15.208 4.70898H4.79199Z"
    fill="currentColor"
  />
</svg>

<svg xmlns="http://www.w3.org/2000/svg" width="20" height="20" fill="none" data-fui-icon="true" viewBox="0 0 20 20"><path fill="currentColor" d="M14.792 11.542a.75.75 0 0 1 .75.75v1.958H17.5a.75.75 0 0 1 0 1.5h-1.958v1.959a.75.75 0 0 1-1.5 0V15.75h-1.959a.75.75 0 0 1 0-1.5h1.959v-1.958a.75.75 0 0 1 .75-.75m-1.25-10a.75.75 0 0 1 .75.75v.917h.916a2.417 2.417 0 0 1 2.417 2.416v3.75a.75.75 0 0 1-1.5 0v-.916H3.875v6.75c0 .506.41.916.917.916h4.583a.75.75 0 0 1 0 1.5H4.792a2.417 2.417 0 0 1-2.417-2.416V5.625a2.417 2.417 0 0 1 2.417-2.416h.916v-.917a.75.75 0 0 1 1.5 0v.917h5.584v-.917a.75.75 0 0 1 .75-.75m-8.75 3.167a.917.917 0 0 0-.917.916v1.334h12.25V5.625a.917.917 0 0 0-.917-.916z"/></svg>
